svg/u24c2.svg

<svg viewBox="0 0 128 128" xmlns="http://www.w3.org/2000/svg">
  <g>
    <circle cx="63.93" cy="64" r="60" fill="#194FA5"/>
    <circle cx="60.03" cy="63.1" r="56.1" fill="#2262DD"/>
    <path d="M23.93,29.7c4.5-7.1,14.1-13,24.1-14.8 c2.5-0.4,5-0.6,7.1,0.2c1.6,0.6,2.9,2.1,2,3.8c-0.7,1.4-2.6,2-4.1,2.5c-9.38,3.1-17.47,9.21-23,17.4c-2,3-5,11.3-8.7,9.2 C17.43,45.7,18.23,38.5,23.93,29.7z" opacity="0.65" fill="#68ABE6" enable-background="new "/>
  </g>
  <path d="M29.6,34.15h15.01L61,77.55h0.69l16.39-43.39h15.1v61.77H81.61V65.47l0.69-10.26h-0.69l-15.7,40.72 h-9.06L41.07,55.2h-0.69l0.69,10.26v30.45H29.6V34.15z" fill="#FBF9F9"/>
  <path d="M23.93,29.7c4.5-7.1,14.1-13,24.1-14.8c2.5-0.4,5-0.6,7.1,0.2 c1.6,0.6,2.9,2.1,2,3.8c-0.7,1.4-2.6,2-4.1,2.5c-9.38,3.1-17.47,9.21-23,17.4c-2,3-5,11.3-8.7,9.2C17.43,45.7,18.23,38.5,23.93,29.7 z" opacity="0.3" fill="#68ABE6" enable-background="new "/>
</svg>

<svg viewBox="0 0 128 128" xmlns="http://www.w3.org/2000/svg">
  <defs/>
  <path d="M123.93,64 A60 60 0 1 1 3.93,64 A60 60 0 1 1 123.93,64 Z" fill="#194FA5"/>
  <path d="M116.13,63.1 A56.1 56.1 0 1 1 3.93,63.1 A56.1 56.1 0 1 1 116.13,63.1 Z" fill="#2262DD"/>
  <path d="M23.93,29.7 C28.43,22.6 38.03,16.7 48.03,14.9 C50.53,14.5 53.03,14.3 55.13,15.1 C56.73,15.7 58.03,17.2 57.13,18.9 C56.43,20.3 54.53,20.9 53.03,21.4 C43.65,24.5 35.56,30.61 30.03,38.8 C28.03,41.8 25.03,50.1 21.33,48 C17.43,45.7 18.23,38.5 23.93,29.7 Z" fill="#68ABE6" opacity="0.65"/>
  <path d="M29.6,34.15 L44.61,34.15 L61,77.55 L61.69,77.55 L78.08,34.16 L93.18,34.16 L93.18,95.93 L81.61,95.93 L81.61,65.47 L82.3,55.21 L81.61,55.21 L65.91,95.93 L56.85,95.93 L41.07,55.2 L40.38,55.2 L41.07,65.46 L41.07,95.91 L29.6,95.91 L29.6,34.15 Z" fill="#FBF9F9"/>
  <path d="M23.93,29.7 C28.43,22.6 38.03,16.7 48.03,14.9 C50.53,14.5 53.03,14.3 55.13,15.1 C56.73,15.7 58.03,17.2 57.13,18.9 C56.43,20.3 54.53,20.9 53.03,21.4 C43.65,24.5 35.56,30.61 30.03,38.8 C28.03,41.8 25.03,50.1 21.33,48 C17.43,45.7 18.23,38.5 23.93,29.7 Z" fill="#68ABE6" opacity="0.3"/>
</svg>
